**kern	**silbe	**kern	**silbe	**harmony	**phrase	**leadinstrument	**rhyme	**timestamp	**harte
*ICvox	*	*ICvox	*	*M4/4	*	*	*	*	*M4/4
*VRlead	*	*VRharmonize	*	*	*	*	*	*	*
*Hstimme	*	*Nstimme	*	*	*	*	*	*	*
*F:	*	*F:	*	*F:	*	*	*	*	*F:
*M4/4	*	*M4/4	*	*	*	*	*	*	*
*clefC3	*	*clefG2	*	*	*	*	*	*	*
r;	.	r;	.	1r;	.	r	.	0	N.C.
=1	=1	=1	=1	=1	=1	=1	=1	=1	=1
*>Letter>A	*>Letter>A	*>Letter>A	*>Letter>A	*>Letter>A	*>Letter>A	*>Letter>A	*>Letter>A	*>Letter>A	*>Letter>A
*>Label>Intro	*>Label>Intro	*>Label>Intro	*>Label>Intro	*>Label>Intro	*>Label>Intro	*>Label>Intro	*>Label>Intro	*>Label>Intro	*>Label>Intro
1r	.	1r	.	1FM	newline	synthesizer	.	0.464	F:maj
=2	=2	=2	=2	=2	=2	=2	=2	=2	=2
1r	.	1r	.	1FM	.	synthesizer	.	2.775	F:maj
=3	=3	=3	=3	=3	=3	=3	=3	=3	=3
1r	.	1r	.	1FM	.	synthesizer	.	5.087	F:1
=4	=4	=4	=4	=4	=4	=4	=4	=4	=4
2r	.	1r	.	1FM	.	synthesizer	.	7.398	F:1
4r	.	.	.	.	.	.	.	.	.
8.r	.	.	.	.	.	.	.	.	.
16F	I	.	.	.	.	.	.	.	.
=5	=5	=5	=5	=5	=5	=5	=5	=5	=5
*>Letter>B	*>Letter>B	*>Letter>B	*>Letter>B	*>Letter>B	*>Letter>B	*>Letter>B	*>Letter>B	*>Letter>B	*>Letter>B
*>Label>Verse	*>Label>Verse	*>Label>Verse	*>Label>Verse	*>Label>Verse	*>Label>Verse	*>Label>Verse	*>Label>Verse	*>Label>Verse	*>Label>Verse
8c	call	1r	.	1FM	newline	voice	.	9.709	F:maj
8c	you	.	.	.	.	.	.	.	.
8r	.	.	.	.	.	.	.	.	.
16c	when	.	.	.	.	.	.	.	.
16c	I	.	.	.	.	.	.	.	.
8d	need	.	.	.	.	.	.	.	.
8d	you	.	.	.	.	.	.	.	.
8r	.	.	.	.	.	.	.	.	.
8d	my	.	.	.	.	.	.	.	.
=6	=6	=6	=6	=6	=6	=6	=6	=6	=6
8dq	_	.	.	.	.	.	.	.	.
4e	heart's	1r	.	1FM	.	voice	.	12.014	F:maj
8f	on	.	.	.	.	.	.	.	.
[8f	fi	.	.	.	.	.	(A	.	.
8f]	_	.	.	.	.	.	.	.	.
16d	_	.	.	.	.	.	.	.	.
16c	_	.	.	.	.	.	.	.	.
4c	re.	.	.	.	.	.	a)	.	.
=7	=7	=7	=7	=7	=7	=7	=7	=7	=7
1r	.	1r	.	2FM	.	voice	.	14.319	F:maj
.	.	.	.	2FM	.	voice	.	15.472	F:maj6
=8	=8	=8	=8	=8	=8	=8	=8	=8	=8
2r	.	1r	.	2FMM	.	voice	.	16.625	F:maj7
4.r	.	.	.	2FM	.	voice	.	17.777	F:maj
8F	You	.	.	.	.	.	.	.	.
=9	=9	=9	=9	=9	=9	=9	=9	=9	=9
4c	come	1r	.	1FM	newline	voice	.	18.93	F:maj
8c	to	.	.	.	.	.	.	.	.
8c	me,	.	.	.	.	.	.	.	.
4d	come	.	.	.	.	.	.	.	.
8d	to	.	.	.	.	.	.	.	.
8d	me,	.	.	.	.	.	.	.	.
=10	=10	=10	=10	=10	=10	=10	=10	=10	=10
8e	wi-	1r	.	1FM	.	voice	.	21.242	F:maj
8e	-ld	.	.	.	.	.	.	.	.
8f	and	.	.	.	.	.	.	.	.
[8f	wi	.	.	.	.	.	(A	.	.
8f]	_	.	.	.	.	.	.	.	.
16d	_	.	.	.	.	.	.	.	.
16c	_	.	.	.	.	.	.	.	.
4c	ld.	.	.	.	.	.	a)	.	.
=11	=11	=11	=11	=11	=11	=11	=11	=11	=11
1r	.	1r	.	2FM	.	voice	.	23.554	F:maj
.	.	.	.	2FM	.	voice	.	24.71	F:maj6
=12	=12	=12	=12	=12	=12	=12	=12	=12	=12
2r	.	1r	.	2FMM	.	voice	.	25.866	F:maj7
8f	Oh,	.	.	2FM	.	voice	.	27.022	F:maj
8f	you	.	.	.	.	.	.	.	.
8f	come	.	.	.	.	.	.	.	.
8f	to	.	.	.	.	.	.	.	.
=13	=13	=13	=13	=13	=13	=13	=13	=13	=13
4f	me	1r	.	1Dmm	newline	voice	B	28.178	D:min9
4r	.	.	.	.	.	.	.	.	.
2r	.	.	.	.	.	.	.	.	.
=14	=14	=14	=14	=14	=14	=14	=14	=14	=14
8r	.	1r	.	1Dmm	.	voice	.	30.495	D:min9
8a	Give	.	.	.	.	.	.	.	.
8g	me	.	.	.	.	.	.	.	.
8g	ev-	.	.	.	.	.	.	.	.
8f	-'ry-	.	.	.	.	.	.	.	.
8f	-thing	.	.	.	.	.	B	.	.
8~A	_	.	.	.	.	.	.	.	.
[8B-	I	.	.	.	.	.	.	.	.
=15	=15	=15	=15	=15	=15	=15	=15	=15	=15
8B-]	_	1r	.	1B-M	.	voice	.	32.812	B-:maj
[4.B-	need	.	.	.	.	.	B	.	.
8B-]	_	.	.	.	.	.	.	.	.
8r	.	.	.	.	.	.	.	.	.
4r	.	.	.	.	.	.	.	.	.
=16	=16	=16	=16	=16	=16	=16	=16	=16	=16
2r	.	1r	.	1B-M	.	voice	.	35.129	B-:maj(9)
4r	.	.	.	.	.	.	.	.	.
16c	Give	.	.	.	.	.	.	.	.
16c	me	.	.	.	.	.	.	.	.
16c	a	.	.	.	.	.	.	.	.
[16c	life	.	.	.	.	.	.	.	.
=17	=17	=17	=17	=17	=17	=17	=17	=17	=17
*>Letter>B	*>Letter>B	*>Letter>B	*>Letter>B	*>Letter>B	*>Letter>B	*>Letter>B	*>Letter>B	*>Letter>B	*>Letter>B
*>Label>Verse	*>Label>Verse	*>Label>Verse	*>Label>Verse	*>Label>Verse	*>Label>Verse	*>Label>Verse	*>Label>Verse	*>Label>Verse	*>Label>Verse
8c]	_	1r	.	1FM	newline	voice	.	37.446	F:maj
4c	time	.	.	.	.	.	.	.	.
16c	of	.	.	.	.	.	.	.	.
[16d	pro	.	.	.	.	.	.	.	.
16d]	_	.	.	.	.	.	.	.	.
16d	mi-	.	.	.	.	.	.	.	.
8d	-ses	.	.	.	.	.	.	.	.
8r	.	.	.	.	.	.	.	.	.
16d	and	.	.	.	.	.	.	.	.
16d	a	.	.	.	.	.	.	.	.
=18	=18	=18	=18	=18	=18	=18	=18	=18	=18
8dq	_	.	.	.	.	.	.	.	.
4e	world	1r	.	1FM	.	voice	.	39.758	F:maj
8f	of	.	.	.	.	.	.	.	.
[8f	dreams	.	.	.	.	.	B	.	.
8f]	_	.	.	.	.	.	.	.	.
16d	_	.	.	.	.	.	.	.	.
[16c	_	.	.	.	.	.	.	.	.
8c]	_	.	.	.	.	.	.	.	.
8r	.	.	.	.	.	.	.	.	.
=19	=19	=19	=19	=19	=19	=19	=19	=19	=19
1r	.	1r	.	2FM	.	voice	.	42.071	F:maj
.	.	.	.	2FM	.	voice	.	43.227	F:maj6
=20	=20	=20	=20	=20	=20	=20	=20	=20	=20
2r	.	1r	.	2FMM	.	voice	.	44.384	F:maj7
4r	.	.	.	2FM	.	voice	.	45.54	F:maj
16c	Speak	.	.	.	.	.	.	.	.
16c	the	.	.	.	.	.	.	.	.
[8c	lan	.	.	.	.	.	.	.	.
=21	=21	=21	=21	=21	=21	=21	=21	=21	=21
8c]	_	1r	.	1FM	newline	voice	.	46.696	F:maj
8c	guage	.	.	.	.	.	.	.	.
8c	of	.	.	.	.	.	.	.	.
8cq	_	.	.	.	.	.	.	.	.
[8d	love	.	.	.	.	.	.	.	.
6d]	_	.	.	.	.	.	.	.	.
6d	like	.	.	.	.	.	.	.	.
6d	you	.	.	.	.	.	.	.	.
=22	=22	=22	=22	=22	=22	=22	=22	=22	=22
6e	know	1r	.	1FM	.	voice	.	48.989	F:maj
6e	what	.	.	.	.	.	.	.	.
8eq	_	.	.	.	.	.	.	.	.
8g	it	.	.	.	.	.	.	.	.
[24f	means	.	.	.	.	.	B	.	.
8.f]	_	.	.	.	.	.	.	.	.
16d	_	.	.	.	.	.	.	.	.
4c	_	.	.	.	.	.	.	.	.
=23	=23	=23	=23	=23	=23	=23	=23	=23	=23
1r	.	1r	.	2FM	.	voice	.	51.282	F:maj
.	.	.	.	2FM	.	voice	.	52.428	F:maj6
=24	=24	=24	=24	=24	=24	=24	=24	=24	=24
4r	.	1r	.	2FMM	.	voice	.	53.574	F:maj7
8r	.	.	.	.	.	.	.	.	.
[8f	Mm,	.	.	.	.	.	.	.	.
8f]	_	.	.	2FM	.	voice	.	54.721	F:maj
16f	and	.	.	.	.	.	.	.	.
16f	it	.	.	.	.	.	.	.	.
8f	can't	.	.	.	.	.	.	.	.
8f	be	.	.	.	.	.	.	.	.
=25	=25	=25	=25	=25	=25	=25	=25	=25	=25
16f	wrong	1r	.	1Dmm	newline	voice	C	55.867	D:min9
16d	_	.	.	.	.	.	.	.	.
8r	.	.	.	.	.	.	.	.	.
4r	.	.	.	.	.	.	.	.	.
2r	.	.	.	.	.	.	.	.	.
=26	=26	=26	=26	=26	=26	=26	=26	=26	=26
8r	.	1r	.	1Dmm	.	voice	.	58.188	D:min9
8a	Take	.	.	.	.	.	.	.	.
8g	my	.	.	.	.	.	.	.	.
8g	heart	.	.	.	.	.	.	.	.
8f	_	.	.	.	.	.	.	.	.
8f	and	.	.	.	.	.	.	.	.
8f	make	.	.	.	.	.	.	.	.
8f	it	.	.	.	.	.	.	.	.
=27	=27	=27	=27	=27	=27	=27	=27	=27	=27
8f	strong,	1r	.	1B-M	.	voice	C	60.51	B-:maj
4B-	_	.	.	.	.	.	.	.	.
8B-	babe	.	.	.	.	.	.	.	.
2r	.	.	.	.	.	.	.	.	.
=28	=28	=28	=28	=28	=28	=28	=28	=28	=28
4r	.	1r	.	1CMm	.	voice	.	62.831	C:7
8r	.	.	.	.	.	.	.	.	.
8c	you're	.	.	.	.	.	.	.	.
8b-	sim-	.	.	.	.	.	.	.	.
8b-	-ply	.	.	.	.	.	.	.	.
8b-	the	.	.	.	.	.	.	.	.
8gq	_	.	.	.	.	.	.	.	.
8a	best!	.	.	.	.	.	D	.	.
=29	=29	=29	=29	=29	=29	=29	=29	=29	=29
*>Letter>C	*>Letter>C	*>Letter>C	*>Letter>C	*>Letter>C	*>Letter>C	*>Letter>C	*>Letter>C	*>Letter>C	*>Letter>C
*>Label>Chorus	*>Label>Chorus	*>Label>Chorus	*>Label>Chorus	*>Label>Chorus	*>Label>Chorus	*>Label>Chorus	*>Label>Chorus	*>Label>Chorus	*>Label>Chorus
1r	.	1r	.	2.FM	newline	voice	.	65.152	F:maj
.	.	.	.	4FM	.	voice	.	66.889	F:maj(9)
=30	=30	=30	=30	=30	=30	=30	=30	=30	=30
2r	.	1r	.	2FM	.	voice	.	67.468	F:sus4
8a	Bet-	.	.	2FM	.	voice	.	68.626	F:maj
8a	-ter	.	.	.	.	.	.	.	.
4a	than	.	.	.	.	.	.	.	.
=31	=31	=31	=31	=31	=31	=31	=31	=31	=31
4a	all	1r	.	2.FM	.	voice	.	69.784	F:maj
8f	the	.	.	.	.	.	.	.	.
8f	rest	.	.	.	.	.	D	.	.
2r	.	.	.	.	.	.	.	.	.
.	.	.	.	4FM	.	voice	.	71.521	F:maj(9)
=32	=32	=32	=32	=32	=32	=32	=32	=32	=32
2r	.	1r	.	2FM	.	voice	.	72.1	F:sus4
8a	Bet-	.	.	2FM	.	voice	.	73.258	F:maj
8a	-ter	.	.	.	.	.	.	.	.
4a	than	.	.	.	.	.	.	.	.
=33	=33	=33	=33	=33	=33	=33	=33	=33	=33
8a	a-	1r	.	2.Dmm	newline	voice	.	74.416	D:min7
4f	-ny-	.	.	.	.	.	.	.	.
8f	-one	.	.	.	.	.	.	.	.
2r	.	.	.	.	.	.	.	.	.
.	.	.	.	4Dmm	.	voice	.	76.154	D:min11
=34	=34	=34	=34	=34	=34	=34	=34	=34	=34
2r	.	1r	.	2Dmm	.	voice	.	76.733	B-:maj(9)/3
16r	.	.	.	2Dmm	.	voice	.	77.892	D:min7
16f	a-	.	.	.	.	.	.	.	.
8f	-ny-	.	.	.	.	.	.	.	.
8f	-one	.	.	.	.	.	.	.	.
8f	I've	.	.	.	.	.	.	.	.
=35	=35	=35	=35	=35	=35	=35	=35	=35	=35
8f	e	1r	.	1CM	.	voice	.	79.05	C:maj
8c	_	.	.	.	.	.	.	.	.
8c	ver	.	.	.	.	.	.	.	.
8c	met	.	.	.	.	.	D	.	.
2r	.	.	.	.	.	.	.	.	.
=36	=36	=36	=36	=36	=36	=36	=36	=36	=36
4r	.	1r	.	1CM	.	voice	.	81.368	C:maj
8r	.	.	.	.	.	.	.	.	.
8~g	I'm	.	.	.	.	.	.	.	.
8b-	stuck	.	.	.	.	.	.	.	.
[8b-	on	.	.	.	.	.	.	.	.
16b-]	_	.	.	.	.	.	.	.	.
8.b-	your	.	.	.	.	.	.	.	.
=37	=37	=37	=37	=37	=37	=37	=37	=37	=37
8a	heart	1r	.	2.FM	newline	voice	E	83.685	F:maj
4f	_	.	.	.	.	.	.	.	.
8r	.	.	.	.	.	.	.	.	.
2r	.	.	.	.	.	.	.	.	.
.	.	.	.	4FM	.	voice	.	85.409	F:maj(9)
=38	=38	=38	=38	=38	=38	=38	=38	=38	=38
4r	.	2r	.	2FM	.	voice	.	85.983	F:sus4
8r	.	.	.	.	.	.	.	.	.
8f	I	.	.	.	.	.	.	.	.
8a	hang	8f	_	2FM	.	voice	.	87.133	F:maj
8a	on	8f	_	.	.	.	.	.	.
8a	ev-	8f	_	.	.	.	.	.	.
8a	-'ry	8f	_	.	.	.	.	.	.
=39	=39	=39	=39	=39	=39	=39	=39	=39	=39
8gq	_	8dq	_	.	.	.	.	.	.
8a-	word	8f	_	2.FM	.	voice	.	88.282	F:maj
8g	_	8d	_	.	.	.	.	.	.
8f	you	8c	_	.	.	.	.	.	.
8f	say	8c	_	.	.	.	.	.	.
2r	.	2r	.	.	.	.	.	.	.
.	.	.	.	4FM	.	voice	.	90.006	F:maj(9)
=40	=40	=40	=40	=40	=40	=40	=40	=40	=40
2r	.	1r	.	2FM	.	voice	.	90.581	F:sus4
8f	Tear	.	.	2FM	.	voice	.	91.73	F:maj
8f	us	.	.	.	.	.	.	.	.
16f	a-	.	.	.	.	.	.	.	.
16fQ	_	.	.	.	.	.	.	.	.
[8.d	-part	.	.	.	.	.	E	.	.
=41	=41	=41	=41	=41	=41	=41	=41	=41	=41
8d]	_	1r	.	2.Dmm	newline	voice	.	92.88	D:min7
16c	_	.	.	.	.	.	.	.	.
16A	_	.	.	.	.	.	.	.	.
16A	_	.	.	.	.	.	.	.	.
16G	_	.	.	.	.	.	.	.	.
8F	_	.	.	.	.	.	.	.	.
2r	.	.	.	.	.	.	.	.	.
.	.	.	.	4Dmm	.	voice	.	94.608	D:min11
=42	=42	=42	=42	=42	=42	=42	=42	=42	=42
2r	.	1r	.	2Dmm	.	voice	.	95.184	B-:maj(9)/3
8f	Ba-	.	.	2Dmm	.	voice	.	96.337	D:min7
8f	-by,	.	.	.	.	.	.	.	.
8f	I	.	.	.	.	.	.	.	.
8f	would	.	.	.	.	.	.	.	.
=43	=43	=43	=43	=43	=43	=43	=43	=43	=43
6d	ra-	1r	.	1CM	.	voice	.	97.489	C:maj
6c	-ther	.	.	.	.	.	.	.	.
8cq	_	.	.	.	.	.	.	.	.
6d	be	.	.	.	.	.	.	.	.
8c	_	.	.	.	.	.	.	.	.
4.c	dead	.	.	.	.	.	.	.	.
=44	=44	=44	=44	=44	=44	=44	=44	=44	=44
2r	.	1r	.	1CM	.	voice	.	99.794	C:maj
4r	.	.	.	.	.	.	.	.	.
16~A	In	.	.	.	.	.	.	.	.
16~B-	your	.	.	.	.	.	.	.	.
[8c	heart	.	.	.	.	.	E	.	.
=45	=45	=45	=45	=45	=45	=45	=45	=45	=45
*>Letter>B	*>Letter>B	*>Letter>B	*>Letter>B	*>Letter>B	*>Letter>B	*>Letter>B	*>Letter>B	*>Letter>B	*>Letter>B
*>Label>Verse	*>Label>Verse	*>Label>Verse	*>Label>Verse	*>Label>Verse	*>Label>Verse	*>Label>Verse	*>Label>Verse	*>Label>Verse	*>Label>Verse
8.c]	_	1r	.	1FM	newline	voice	.	102.098	F:maj
16c	I	.	.	.	.	.	.	.	.
16c	see	.	.	.	.	.	.	.	.
16c	the	.	.	.	.	.	.	.	.
[8d	start	.	.	.	.	.	E	.	.
8.d]	_	.	.	.	.	.	.	.	.
16d	of	.	.	.	.	.	.	.	.
16d	ev-	.	.	.	.	.	.	.	.
16d	-'ry	.	.	.	.	.	.	.	.
16dQ	_	.	.	.	.	.	.	.	.
[8e	night	.	.	.	.	.	.	.	.
=46	=46	=46	=46	=46	=46	=46	=46	=46	=46
8.e]	_	1r	.	1FM	.	voice	.	104.42	F:maj
16e	and	.	.	.	.	.	.	.	.
16e	ev-	.	.	.	.	.	.	.	.
16f	-'ry	.	.	.	.	.	.	.	.
[8f	day	.	.	.	.	.	F	.	.
8f]	_	.	.	.	.	.	.	.	.
16d	_	.	.	.	.	.	.	.	.
16c	_	.	.	.	.	.	.	.	.
4c	_	.	.	.	.	.	.	.	.
=47	=47	=47	=47	=47	=47	=47	=47	=47	=47
1r	.	1r	.	2FM	.	voice	.	106.742	F:maj
.	.	.	.	2FM	.	voice	.	107.903	F:maj6
=48	=48	=48	=48	=48	=48	=48	=48	=48	=48
2r	.	1r	.	2FMM	.	voice	.	109.064	F:maj7
4r	.	.	.	2FM	.	voice	.	110.225	F:maj
16c	In	.	.	.	.	.	.	.	.
16c	your	.	.	.	.	.	.	.	.
8c	eyes	.	.	.	.	.	.	.	.
=49	=49	=49	=49	=49	=49	=49	=49	=49	=49
4A	_	1r	.	1FM	newline	voice	.	111.386	F:maj
16r	.	.	.	.	.	.	.	.	.
16A	I	.	.	.	.	.	.	.	.
8c	get	.	.	.	.	.	.	.	.
4e	lost	.	.	.	.	.	G	.	.
16r	.	.	.	.	.	.	.	.	.
16~A	I	.	.	.	.	.	.	.	.
8d	get	.	.	.	.	.	.	.	.
=50	=50	=50	=50	=50	=50	=50	=50	=50	=50
4e	washed	1r	.	1FM	.	voice	G	113.685	F:maj
8f	a-	.	.	.	.	.	.	.	.
[8f	-way	.	.	.	.	.	F	.	.
8f]	_	.	.	.	.	.	.	.	.
16d	_	.	.	.	.	.	.	.	.
16c	_	.	.	.	.	.	.	.	.
4c	_	.	.	.	.	.	.	.	.
=51	=51	=51	=51	=51	=51	=51	=51	=51	=51
1r	.	1r	.	2FM	.	voice	.	115.984	F:maj
.	.	.	.	2FM	.	voice	.	117.133	F:maj6
=52	=52	=52	=52	=52	=52	=52	=52	=52	=52
2r	.	1r	.	2FMM	.	voice	.	118.282	F:maj7
6r	.	.	.	2FM	.	voice	.	119.432	F:maj
6a	Just	.	.	.	.	.	.	.	.
8gq	_	.	.	.	.	.	.	.	.
6a	as	.	.	.	.	.	.	.	.
=53	=53	=53	=53	=53	=53	=53	=53	=53	=53
12a	long	1r	.	1Dmm	newline	voice	.	120.581	D:min9
12g	_	.	.	.	.	.	.	.	.
6g	as	.	.	.	.	.	.	.	.
6g	I'm	.	.	.	.	.	.	.	.
12g	here	.	.	.	.	.	.	.	.
12f	_	.	.	.	.	.	.	.	.
6f	in	.	.	.	.	.	.	.	.
6f	your	.	.	.	.	.	.	.	.
=54	=54	=54	=54	=54	=54	=54	=54	=54	=54
6f	arms	1r	.	1Dmm	.	voice	E	122.893	D:min9
6f	I	.	.	.	.	.	.	.	.
6f	could	.	.	.	.	.	.	.	.
6f	be	.	.	.	.	.	.	.	.
6f	in	.	.	.	.	.	.	.	.
[6f	no	.	.	.	.	.	.	.	.
=55	=55	=55	=55	=55	=55	=55	=55	=55	=55
8f]	_	1r	.	1B-M	.	voice	.	125.205	B-:maj
8e-	bet-	.	.	.	.	.	.	.	.
8d	-ter	.	.	.	.	.	.	.	.
[8d	place	.	.	.	.	.	F	.	.
8d]	_	.	.	.	.	.	.	.	.
8r	.	.	.	.	.	.	.	.	.
4r	.	.	.	.	.	.	.	.	.
=56	=56	=56	=56	=56	=56	=56	=56	=56	=56
4r	.	2r	.	1CMm	.	voice	.	127.517	C:7
8r	.	.	.	.	.	.	.	.	.
8c	you're	.	.	.	.	.	.	.	.
8b-	sim-	8dd	sim-	.	.	.	.	.	.
8b-	-ply	8dd	-ply	.	.	.	.	.	.
8b-	the	8dd	the	.	.	.	.	.	.
8gq	_	.	.	.	.	.	.	.	.
8a	best!	8cc	best!	.	.	.	D	.	.
=57	=57	=57	=57	=57	=57	=57	=57	=57	=57
*>Letter>C	*>Letter>C	*>Letter>C	*>Letter>C	*>Letter>C	*>Letter>C	*>Letter>C	*>Letter>C	*>Letter>C	*>Letter>C
*>Label>Chorus	*>Label>Chorus	*>Label>Chorus	*>Label>Chorus	*>Label>Chorus	*>Label>Chorus	*>Label>Chorus	*>Label>Chorus	*>Label>Chorus	*>Label>Chorus
1r	.	1r	.	2.FM	newline	voice	.	129.829	F:maj
.	.	.	.	4FM	.	voice	.	131.574	F:maj(9)
=58	=58	=58	=58	=58	=58	=58	=58	=58	=58
2r	.	2r	.	2FM	.	voice	.	132.156	F:sus4
8a	Bet-	8cc	Bet-	2FM	.	voice	.	133.32	F:maj
8a	-ter	8cc	-ter	.	.	.	.	.	.
4a	than	4cc	than	.	.	.	.	.	.
=59	=59	=59	=59	=59	=59	=59	=59	=59	=59
4a	all	4cc	all	2.FM	.	voice	.	134.483	F:maj
8f	the	8a	the	.	.	.	.	.	.
8f	rest	8a	rest	.	.	.	D	.	.
2r	.	2r	.	.	.	.	.	.	.
.	.	.	.	4FM	.	voice	.	136.228	F:maj(9)
=60	=60	=60	=60	=60	=60	=60	=60	=60	=60
2r	.	2r	.	2FM	.	voice	.	136.81	F:sus4
8a	Bet-	8cc	Bet-	2FM	.	voice	.	137.973	F:maj
8a	-ter	8cc	-ter	.	.	.	.	.	.
4a	than	4cc	than	.	.	.	.	.	.
=61	=61	=61	=61	=61	=61	=61	=61	=61	=61
8a	a-	4cc	a-	2.Dmm	newline	voice	.	139.137	D:min7
8f	-ny-	.	.	.	.	.	.	.	.
8f	_	8a	_	.	.	.	.	.	.
8f	-one	8a	-one	.	.	.	.	.	.
2r	.	2r	.	.	.	.	.	.	.
.	.	.	.	4Dmm	.	voice	.	140.869	D:min11
=62	=62	=62	=62	=62	=62	=62	=62	=62	=62
2r	.	2r	.	2Dmm	.	voice	.	141.446	B-:maj(9)/3
8f	a-	8a	a-	2Dmm	.	voice	.	142.601	D:min7
8f	-ny-	8a	-ny-	.	.	.	.	.	.
8f	-one	8a	-one	.	.	.	.	.	.
8f	I've	8a	I've	.	.	.	.	.	.
=63	=63	=63	=63	=63	=63	=63	=63	=63	=63
8f	e	8a	e	1CM	.	voice	.	143.756	C:maj
8c	_	8g	_	.	.	.	.	.	.
8c	ver	8g	ver	.	.	.	.	.	.
8c	met	8g	met	.	.	.	D	.	.
2r	.	2r	.	.	.	.	.	.	.
=64	=64	=64	=64	=64	=64	=64	=64	=64	=64
4r	.	2r	.	1CM	.	voice	.	146.066	C:maj
16r	.	.	.	.	.	.	.	.	.
16.cc	_	.	.	.	.	.	.	.	.
16.~b-	_	.	.	.	.	.	.	.	.
8b-	stuck	8dd	stuck	.	.	.	.	.	.
[8b-	on	[8dd	on	.	.	.	.	.	.
16b-]	_	16dd]	_	.	.	.	.	.	.
8.b-	your	8.dd	your	.	.	.	.	.	.
=65	=65	=65	=65	=65	=65	=65	=65	=65	=65
8a	heart	8cc	heart	2.FM	newline	voice	E	148.376	F:maj
4f	_	4a	_	.	.	.	.	.	.
8r	.	8r	.	.	.	.	.	.	.
2r	.	2r	.	.	.	.	.	.	.
.	.	.	.	4FM	.	voice	.	150.1	F:maj(9)
=66	=66	=66	=66	=66	=66	=66	=66	=66	=66
4r	.	2r	.	2FM	.	voice	.	150.674	F:sus4
8r	.	.	.	.	.	.	.	.	.
8f	I	.	.	.	.	.	.	.	.
8a	hang	8cc	hang	2FM	.	voice	.	151.824	F:maj
8a	on	8cc	on	.	.	.	.	.	.
8a	ev-	8cc	ev-	.	.	.	.	.	.
8a	-'ry	8cc	-'ry	.	.	.	.	.	.
=67	=67	=67	=67	=67	=67	=67	=67	=67	=67
8gq	_	8b-q	_	.	.	.	.	.	.
8a-	word	8cc	word	2.FM	.	voice	.	152.973	F:maj
8g	_	8b-	_	.	.	.	.	.	.
8f	you	8a	you	.	.	.	.	.	.
8f	say	8a	say	.	.	.	F	.	.
2r	.	2r	.	.	.	.	.	.	.
.	.	.	.	4FM	.	voice	.	154.697	F:maj(9)
=68	=68	=68	=68	=68	=68	=68	=68	=68	=68
4r	.	1r	.	2FM	.	voice	.	155.272	F:sus4
8gq	_	.	.	.	.	.	.	.	.
4a	Oh,	.	.	.	.	.	.	.	.
8a	tear	.	.	2FM	.	voice	.	156.421	F:maj
8g	us	.	.	.	.	.	.	.	.
8f	a-	.	.	.	.	.	.	.	.
[8f	-part,	.	.	.	.	.	E	.	.
=69	=69	=69	=69	=69	=69	=69	=69	=69	=69
8f]	_	1r	.	2.Dmm	newline	voice	.	157.571	D:min7
[8d	no,	.	.	.	.	.	.	.	.
16d]	_	.	.	.	.	.	.	.	.
8.A	no,	.	.	.	.	.	.	.	.
4G	no	.	.	.	.	.	.	.	.
4r	.	.	.	4Dmm	.	voice	.	159.304	D:min11
=70	=70	=70	=70	=70	=70	=70	=70	=70	=70
2r	.	1r	.	2Dmm	.	voice	.	159.882	B-:maj(9)/3
16cQ	_	.	.	.	.	.	.	.	.
16dQ	_	.	.	.	.	.	.	.	.
8e	Ba-	.	.	2Dmm	.	voice	.	161.037	D:min7
8f	-by,	.	.	.	.	.	.	.	.
8f	I	.	.	.	.	.	.	.	.
8f	would	.	.	.	.	.	.	.	.
=71	=71	=71	=71	=71	=71	=71	=71	=71	=71
6d	ra-	1r	.	1CM	.	voice	.	162.193	C:maj
6c	-ther	.	.	.	.	.	.	.	.
8cq	_	.	.	.	.	.	.	.	.
6d	be	.	.	.	.	.	.	.	.
8c	_	.	.	.	.	.	.	.	.
4.c	dead	.	.	.	.	.	.	.	.
=72	=72	=72	=72	=72	=72	=72	=72	=72	=72
1r	.	1r	.	1CM	.	voice	.	164.504	C:maj
=73	=73	=73	=73	=73	=73	=73	=73	=73	=73
*>Letter>D	*>Letter>D	*>Letter>D	*>Letter>D	*>Letter>D	*>Letter>D	*>Letter>D	*>Letter>D	*>Letter>D	*>Letter>D
*>Label>Bridge	*>Label>Bridge	*>Label>Bridge	*>Label>Bridge	*>Label>Bridge	*>Label>Bridge	*>Label>Bridge	*>Label>Bridge	*>Label>Bridge	*>Label>Bridge
8r	.	1r	.	1B-M	newline	voice	.	166.815	B-:maj(9)
8b-	Each	.	.	.	.	.	.	.	.
8b-	time	.	.	.	.	.	.	.	.
8b-	you	.	.	.	.	.	.	.	.
8b-	leave	.	.	.	.	.	.	.	.
8b-	me	.	.	.	.	.	.	.	.
8b-	I	.	.	.	.	.	.	.	.
8b-	start	.	.	.	.	.	E	.	.
=74	=74	=74	=74	=74	=74	=74	=74	=74	=74
8b-	lo-	1r	.	1B-M	.	voice	.	169.123	B-:maj(9)
8a	-sing	.	.	.	.	.	.	.	.
8g	con-	.	.	.	.	.	.	.	.
8b-	-trol	.	.	.	.	.	H	.	.
16a	_	.	.	.	.	.	.	.	.
8.g	_	.	.	.	.	.	.	.	.
8r	.	.	.	.	.	.	.	.	.
8~B-	you're	.	.	.	.	.	.	.	.
=75	=75	=75	=75	=75	=75	=75	=75	=75	=75
8a	wal-	1r	.	1Dmm	.	voice	.	171.431	D:min7
8a	-king	.	.	.	.	.	.	.	.
8a	a-	.	.	.	.	.	.	.	.
8g#q	_	.	.	.	.	.	.	.	.
[8a	-way	.	.	.	.	.	.	.	.
8a]	_	.	.	.	.	.	.	.	.
8g	with	.	.	.	.	.	.	.	.
8f	my	.	.	.	.	.	.	.	.
8g#q	_	.	.	.	.	.	.	.	.
[8a	heart	.	.	.	.	.	E	.	.
=76	=76	=76	=76	=76	=76	=76	=76	=76	=76
8a]	_	1r	.	1Dmm	.	voice	.	173.739	D:min7
8g	and	.	.	.	.	.	.	.	.
8f	my	.	.	.	.	.	.	.	.
8g#q	_	.	.	.	.	.	.	.	.
[8a	soul	.	.	.	.	.	H	.	.
4a]	_	.	.	.	.	.	.	.	.
4r	.	.	.	.	.	.	.	.	.
=77	=77	=77	=77	=77	=77	=77	=77	=77	=77
4r	.	1r	.	1B-M	newline	voice	.	176.046	B-:maj
8b-	I	.	.	.	.	.	.	.	.
8b-	can	.	.	.	.	.	.	.	.
8b-	feel	.	.	.	.	.	.	.	.
8b-	you	.	.	.	.	.	.	.	.
8b-	e-	.	.	.	.	.	.	.	.
8b-	-ven	.	.	.	.	.	.	.	.
=78	=78	=78	=78	=78	=78	=78	=78	=78	=78
8b-	when	1r	.	1B-M	.	voice	.	178.371	B-:maj
8a	I'm	.	.	.	.	.	.	.	.
8g	a-	.	.	.	.	.	.	.	.
8b-	-lone	.	.	.	.	.	H	.	.
16a	_	.	.	.	.	.	.	.	.
8.g	_	.	.	.	.	.	.	.	.
4r	.	.	.	.	.	.	.	.	.
=79	=79	=79	=79	=79	=79	=79	=79	=79	=79
8r	.	1r	.	1CM	.	voice	.	180.696	C:maj
[8cc	Oh,	.	.	.	.	.	.	.	.
16cc]	_	.	.	.	.	.	.	.	.
[8.cc	ba	.	.	.	.	.	.	.	.
8cc]	_	.	.	.	.	.	.	.	.
8a	_	.	.	.	.	.	.	.	.
8a	by	.	.	.	.	.	.	.	.
8r	.	.	.	.	.	.	.	.	.
=80	=80	=80	=80	=80	=80	=80	=80	=80	=80
8r	.	1r	.	2CM	.	voice	.	183.02	C:maj
16dd	Don't	.	.	.	.	.	.	.	.
16cc	_	.	.	.	.	.	.	.	.
8dd	let	.	.	.	.	.	.	.	.
[8dd	go	.	.	.	.	.	H	.	.
8dd]	_	.	.	2DM	.	voice	.	184.183	D:maj
16cc	_	.	.	.	.	.	.	.	.
16a	_	.	.	.	.	.	.	.	.
4r	.	.	.	.	.	.	.	.	.
=81	=81	=81	=81	=81	=81	=81	=81	=81	=81
*>Letter>C2	*>Letter>C2	*>Letter>C2	*>Letter>C2	*>Letter>C2	*>Letter>C2	*>Letter>C2	*>Letter>C2	*>Letter>C2	*>Letter>C2
*>Label>Solo	*>Label>Solo	*>Label>Solo	*>Label>Solo	*>Label>Solo	*>Label>Solo	*>Label>Solo	*>Label>Solo	*>Label>Solo	*>Label>Solo
*G:	*	*G:	*	*G:	*G:	*G:	*	*G:	*G:
1r	.	1r	.	2.GM	newline	saxophone	.	185.345	G:maj
.	.	.	.	4GM	.	saxophone	.	187.072	G:maj(9)
=82	=82	=82	=82	=82	=82	=82	=82	=82	=82
1r	.	1r	.	2GM	.	saxophone	.	187.648	G:sus4
.	.	.	.	2GM	.	saxophone	.	188.8	G:maj
=83	=83	=83	=83	=83	=83	=83	=83	=83	=83
1r	.	1r	.	2.GM	.	saxophone	.	189.951	G:maj
.	.	.	.	4GM	.	saxophone	.	191.678	G:maj(9)
=84	=84	=84	=84	=84	=84	=84	=84	=84	=84
1r	.	1r	.	2GM	.	saxophone	.	192.254	G:sus4
.	.	.	.	2GM	.	saxophone	.	193.406	G:maj
=85	=85	=85	=85	=85	=85	=85	=85	=85	=85
1r	.	1r	.	2.Emm	newline	saxophone	.	194.557	E:min7
.	.	.	.	4Emm	.	saxophone	.	196.286	E:min11
=86	=86	=86	=86	=86	=86	=86	=86	=86	=86
1r	.	1r	.	2CM	.	saxophone	.	196.863	C:maj(9)/3
.	.	.	.	2Emm	.	saxophone	.	198.015	E:min7
=87	=87	=87	=87	=87	=87	=87	=87	=87	=87
1r	.	1r	.	1DM	.	saxophone	.	199.168	D:maj
=88	=88	=88	=88	=88	=88	=88	=88	=88	=88
*clefG2	*	*	*	*	*	*	*	*	*
8r	.	1r	.	1DM	.	saxophone	.	201.473	D:maj
4.dd	_	.	.	.	.	.	.	.	.
8cc	sim-	.	.	.	.	.	.	.	.
8cc	-ply	.	.	.	.	.	.	.	.
8cc	the	.	.	.	.	.	.	.	.
8b	best!	.	.	.	.	.	D	.	.
=89	=89	=89	=89	=89	=89	=89	=89	=89	=89
*>Letter>C	*>Letter>C	*>Letter>C	*>Letter>C	*>Letter>C	*>Letter>C	*>Letter>C	*>Letter>C	*>Letter>C	*>Letter>C
*>Label>Chorus	*>Label>Chorus	*>Label>Chorus	*>Label>Chorus	*>Label>Chorus	*>Label>Chorus	*>Label>Chorus	*>Label>Chorus	*>Label>Chorus	*>Label>Chorus
8r	.	1r	.	2.GM	newline	voice	.	203.779	G:maj
8bb-	_	.	.	.	.	.	.	.	.
4r	.	.	.	.	.	.	.	.	.
2r	.	.	.	.	.	.	.	.	.
.	.	.	.	4GM	.	voice	.	205.516	G:maj(9)
=90	=90	=90	=90	=90	=90	=90	=90	=90	=90
2r	.	2r	.	2GM	.	voice	.	206.096	G:sus4
8b	Bet-	8dd	Bet-	2GM	.	voice	.	207.254	G:maj
8b	-ter	8dd	-ter	.	.	.	.	.	.
4b	than	4dd	than	.	.	.	.	.	.
=91	=91	=91	=91	=91	=91	=91	=91	=91	=91
8b	all	8dd	all	2.GM	.	voice	.	208.413	G:maj
8g	_	8b	_	.	.	.	.	.	.
8g	the	8b	the	.	.	.	.	.	.
8g	rest	8b	rest	.	.	.	D	.	.
2r	.	2r	.	.	.	.	.	.	.
.	.	.	.	4GM	.	voice	.	210.15	G:maj(9)
=92	=92	=92	=92	=92	=92	=92	=92	=92	=92
2r	.	2r	.	2GM	.	voice	.	210.73	G:sus4
8b	Bet-	8dd	Bet-	2GM	.	voice	.	211.888	G:maj
8b	-ter	8dd	-ter	.	.	.	.	.	.
4b	than	4dd	than	.	.	.	.	.	.
=93	=93	=93	=93	=93	=93	=93	=93	=93	=93
8b	a-	4dd	a-	2.Emm	newline	voice	.	213.047	E:min7
8g	-ny-	.	.	.	.	.	.	.	.
8g	_	8b	_	.	.	.	.	.	.
8g	-one	8b	-one	.	.	.	.	.	.
2r	.	2r	.	.	.	.	.	.	.
.	.	.	.	4Emm	.	voice	.	214.774	E:min11
=94	=94	=94	=94	=94	=94	=94	=94	=94	=94
2r	.	2r	.	2Emm	.	voice	.	215.349	C:maj(9)/3
8g	_	8b	_	2Emm	.	voice	.	216.501	E:min7
8g	ny-	8b	ny-	.	.	.	.	.	.
8g	-one	8b	-one	.	.	.	.	.	.
8g	I've	8b	I've	.	.	.	.	.	.
=95	=95	=95	=95	=95	=95	=95	=95	=95	=95
8g	e	8b	e	1DM	.	voice	.	217.652	D:maj
8d	_	8a	_	.	.	.	.	.	.
8d	ver	8a	ver	.	.	.	.	.	.
8d	met	8a	met	.	.	.	D	.	.
2r	.	2r	.	.	.	.	.	.	.
=96	=96	=96	=96	=96	=96	=96	=96	=96	=96
4r	.	2r	.	1DM	.	voice	.	219.955	D:maj
16r	.	.	.	.	.	.	.	.	.
16.dd	Ooh,	.	.	.	.	.	.	.	.
16.~cc	I'm	.	.	.	.	.	.	.	.
8cc	stuck	8ee	stuck	.	.	.	.	.	.
[8cc	on	[8ee	on	.	.	.	.	.	.
16cc]	_	16ee]	_	.	.	.	.	.	.
8.cc	your	8.ee	your	.	.	.	.	.	.
=97	=97	=97	=97	=97	=97	=97	=97	=97	=97
8b	heart	8dd	heart	2.GM	newline	voice	E	222.257	G:maj
4g	_	4b	_	.	.	.	.	.	.
8r	.	8r	.	.	.	.	.	.	.
2r	.	2r	.	.	.	.	.	.	.
.	.	.	.	4GM	.	voice	.	223.983	G:maj(9)
=98	=98	=98	=98	=98	=98	=98	=98	=98	=98
4r	.	2r	.	2GM	.	voice	.	224.559	G:sus4
8r	.	.	.	.	.	.	.	.	.
8g	I	.	.	.	.	.	.	.	.
8b	hang	8dd	hang	2GM	.	voice	.	225.71	G:maj
8b	on	8dd	on	.	.	.	.	.	.
8b	ev-	8dd	ev-	.	.	.	.	.	.
8b	-'ry	8dd	-'ry	.	.	.	.	.	.
=99	=99	=99	=99	=99	=99	=99	=99	=99	=99
8aq	_	8ccq	_	.	.	.	.	.	.
8b-	word	8dd	word	2.GM	.	voice	.	226.861	G:maj
8a	_	8cc	_	.	.	.	.	.	.
8g	you	8b	you	.	.	.	.	.	.
8g	say	8b	say	.	.	.	F	.	.
2r	.	2r	.	.	.	.	.	.	.
.	.	.	.	4GM	.	voice	.	228.587	G:maj(9)
=100	=100	=100	=100	=100	=100	=100	=100	=100	=100
4r	.	1r	.	2GM	.	voice	.	229.162	G:sus4
8aq	_	.	.	.	.	.	.	.	.
4b	Oh,	.	.	.	.	.	.	.	.
8b	tear	.	.	2GM	.	voice	.	230.313	G:maj
8a	us	.	.	.	.	.	.	.	.
8g	a-	.	.	.	.	.	.	.	.
8g	-part	.	.	.	.	.	E	.	.
=101	=101	=101	=101	=101	=101	=101	=101	=101	=101
8e	_	1r	.	2.Emm	newline	voice	.	231.464	E:min7
8r	.	.	.	.	.	.	.	.	.
16r	.	.	.	.	.	.	.	.	.
16e	No,	.	.	.	.	.	.	.	.
[8B	_	.	.	.	.	.	.	.	.
16B]	_	.	.	.	.	.	.	.	.
8.A	no	.	.	.	.	.	.	.	.
4r	.	.	.	4Emm	.	voice	.	233.198	E:min11
=102	=102	=102	=102	=102	=102	=102	=102	=102	=102
*clefC3	*	*	*	*	*	*	*	*	*
2r	.	1r	.	2Emm	.	voice	.	233.776	C:maj(9)/3
8g	Ba-	.	.	2Emm	.	voice	.	234.932	E:min7
8g	-by,	.	.	.	.	.	.	.	.
8g	I	.	.	.	.	.	.	.	.
8g	would	.	.	.	.	.	.	.	.
=103	=103	=103	=103	=103	=103	=103	=103	=103	=103
6e	ra-	1r	.	1DM	.	voice	.	236.088	D:maj
6d	-ther	.	.	.	.	.	.	.	.
8dq	_	.	.	.	.	.	.	.	.
6e	be	.	.	.	.	.	.	.	.
8d	_	.	.	.	.	.	.	.	.
4.d	dead	.	.	.	.	.	.	.	.
=104	=104	=104	=104	=104	=104	=104	=104	=104	=104
8r	.	1r	.	1DM	.	voice	.	238.4	D:maj
4.dd	Oh,	.	.	.	.	.	.	.	.
8cc	_	.	.	.	.	.	.	.	.
8cc	you're	.	.	.	.	.	.	.	.
8cc	the	.	.	.	.	.	.	.	.
8b	best!	.	.	.	.	.	D	.	.
=105	=105	=105	=105	=105	=105	=105	=105	=105	=105
1r	.	1r	.	1GM	.	synthesizer	.	240.712	G:maj(9)
r;	.	r;	.	1r;	.	r	.	327.007	N.C.
r;	.	r;	.	1r;	.	r	.	329.3	N.C.
*-	*-	*-	*-	*-	*-	*-	*-	*-	*-
!!!BillboardChartDate: 1989/11/04
!!!BillboardPeak: 15
!!!BillboardWeeksOnChart: 14
!!!COC: Tina Turner
!!!ENC: Nathaniel Condit-Schultz
!!!EST: Awating manual error checking and editing.
!!!OTL: The Best
!!!RDF**chordsym: original McGill chord annotation + (implied pitch class set, with bass pitch in first position)
!!!RDF**harmony: **recip + pitch class of root + harmonic quality
!!!RDF**leadinstrument: original McGill primary instrumentation annotation
!!!RDF**phrase: newline = linebreak in original McGill transcription
!!!RDF**timestamp: McGill audio timestamp in seconds
!!!RDT: 2017/01/12/
!!!SampleActualRank: 15
!!!SampleID#: 0348
!!!SampleTargetRank: 14
